src/assets/images/social.svg

<?xml version="1.0" encoding="UTF-8" standalone="no"?>
<svg
   version="1.1"
   width="21"
   height="20"
   xmlns="http://www.w3.org/2000/svg"
   xmlns:svg="http://www.w3.org/2000/svg"
>
  <symbol viewBox="0 0 21 20" id="twitter">
    <path
       d="m 18.2394,3.35928 c -0.6792,0.32083 -1.835,0.9225 -2.4159,1.0375 -0.0225,0.00583 -0.0408,0.01333 -0.0625,0.01916 -0.6775,-0.66833 -1.6058,-1.0825 -2.6333,-1.0825 -2.0708,0 -3.74999,1.67917 -3.74999,3.75 0,0.10917 -0.00917,0.31 0,0.41667 -2.68167,0 -4.64,-1.39917 -6.10583,-3.1975 C 3.07605,4.06094 2.86771,4.18678 2.82438,4.35844 2.72688,4.74678 2.69355,5.39594 2.69355,5.85928 c 0,1.1675 0.91249,2.31416 2.33333,3.025 -0.26167,0.0675 -0.55,0.11583 -0.85,0.11583 -0.35334,0 -0.76,-0.0925 -1.11583,-0.27917 -0.13167,-0.06916 -0.41584,-0.05 -0.33167,0.28667 0.3375,1.34919 1.8775,2.29669 3.25333,2.57249 -0.3125,0.1842 -0.97916,0.1467 -1.28583,0.1467 -0.11334,0 -0.5075,-0.0267 -0.7625,-0.0584 -0.2325,-0.0283 -0.59,0.0317 -0.29083,0.485 0.6425,0.9725 2.09583,1.5834 3.34666,1.6067 -1.15166,0.9033 -3.035,1.2333 -4.83916,1.2333 -0.365,-0.0083 -0.34667,0.4075 -0.0525,0.5617 1.33083,0.6983 3.51083,1.1117 5.06833,1.1117 6.19162,0 9.71082,-4.7192 9.71082,-9.16752 0,-0.07167 -0.0017,-0.22167 -0.0042,-0.3725 0,-0.015 0.0042,-0.02917 0.0042,-0.04417 0,-0.0225 -0.0067,-0.04417 -0.0067,-0.06667 -0.0025,-0.11333 -0.005,-0.21916 -0.0075,-0.27416 0.4909,-0.35417 1.2425,-0.96917 1.6225,-1.44 0.1292,-0.16 0.025,-0.35417 -0.1508,-0.29334 -0.4525,0.1575 -1.235,0.4625 -1.725,0.52084 C 17.591,4.88011 18.076,4.31511 18.4927,3.68761 18.6352,3.47344 18.4569,3.25594 18.2394,3.35928 Z"
       fill="#000000"
       fill-opacity="0.56"
       id="path2" />
  </symbol>
  <symbol viewBox="0 0 21 20" id="linkedin">
    <path
       d="M 3.54443,7.22214 H 6.32221 V 16.6666 H 3.54443 Z M 4.92499,6.11103 H 4.90943 c -0.82889,0 -1.365,-0.61778 -1.365,-1.38944 0,-0.78834 0.55278,-1.38834 1.39667,-1.38834 0.845,0 1.36556,0.6 1.38111,1.38834 0,0.77111 -0.53611,1.38944 -1.39722,1.38944 z M 16.8778,16.6666 H 14.1 v -5.055 c 0,-1.2211 -0.6806,-2.05446 -1.7733,-2.05446 -0.8339,0 -1.285,0.56226 -1.5039,1.10556 -0.08,0.1944 -0.0561,0.7322 -0.0561,1.0039 v 5 H 7.98888 V 7.22214 h 2.77782 v 1.45333 c 0.4005,-0.62 1.0277,-1.45333 2.6322,-1.45333 1.9878,0 3.4783,1.25 3.4783,4.04116 z"
       fill="#000000"
       fill-opacity="0.56"
       id="path5" />
  </symbol>
  <symbol viewBox="0 0 21 20" id="facebook">
    <path
       d="M 14.8153,7.49989 H 11.8778 V 5.83322 c 0,-0.86 0.07,-1.40166 1.3025,-1.40166 h 1.5566 v -2.65 c -0.7575,-0.07834 -1.5191,-0.11667 -2.2816,-0.115 -2.2609,0 -3.91087,1.38083 -3.91087,3.91583 v 1.9175 h -2.5 v 3.33331 l 2.5,-8e-4 v 7.5008 h 3.33337 v -7.5025 l 2.555,-8e-4 z"
       fill="#000000"
       fill-opacity="0.56"
       id="path8" />
  </symbol>
</svg>

<svg>
	<symbol viewBox="0 0 21 20" id="twitter">
		<path d="M18.2394 3.35928C17.5602 3.68011 16.4044 4.28178 15.8235 4.39678C15.801 4.40261 15.7827 4.41011 15.761 4.41594C15.0835 3.74761 14.1552 3.33344 13.1277 3.33344C11.0569 3.33344 9.37771 5.01261 9.37771 7.08344C9.37771 7.19261 9.36854 7.39344 9.37771 7.50011C6.69604 7.50011 4.73771 6.10094 3.27188 4.30261C3.07605 4.06094 2.86771 4.18678 2.82438 4.35844C2.72688 4.74678 2.69355 5.39594 2.69355 5.85928C2.69355 7.02678 3.60604 8.17344 5.02688 8.88428C4.76521 8.95178 4.47688 9.00011 4.17688 9.00011C3.82354 9.00011 3.41688 8.90761 3.06105 8.72094C2.92938 8.65178 2.64521 8.67094 2.72938 9.00761C3.06688 10.3568 4.60688 11.3043 5.98271 11.5801C5.67021 11.7643 5.00355 11.7268 4.69688 11.7268C4.58354 11.7268 4.18938 11.7001 3.93438 11.6684C3.70188 11.6401 3.34438 11.7001 3.64355 12.1534C4.28605 13.1259 5.73938 13.7368 6.99021 13.7601C5.83855 14.6634 3.95521 14.9934 2.15105 14.9934C1.78605 14.9851 1.80438 15.4009 2.09855 15.5551C3.42938 16.2534 5.60938 16.6668 7.16688 16.6668C13.3585 16.6668 16.8777 11.9476 16.8777 7.49928C16.8777 7.42761 16.876 7.27761 16.8735 7.12678C16.8735 7.11178 16.8777 7.09761 16.8777 7.08261C16.8777 7.06011 16.871 7.03844 16.871 7.01594C16.8685 6.90261 16.866 6.79678 16.8635 6.74178C17.3544 6.38761 18.106 5.77261 18.486 5.30178C18.6152 5.14178 18.511 4.94761 18.3352 5.00844C17.8827 5.16594 17.1002 5.47094 16.6102 5.52928C17.591 4.88011 18.076 4.31511 18.4927 3.68761C18.6352 3.47344 18.4569 3.25594 18.2394 3.35928Z" fill="black" fill-opacity="0.56"/>
	</symbol>

	<symbol viewBox="0 0 21 20" id="linkedin">
		<path d="M3.54443 7.22214H6.32221V16.6666H3.54443V7.22214ZM4.92499 6.11103H4.90943C4.08054 6.11103 3.54443 5.49325 3.54443 4.72159C3.54443 3.93325 4.09721 3.33325 4.9411 3.33325C5.7861 3.33325 6.30666 3.93325 6.32221 4.72159C6.32221 5.4927 5.7861 6.11103 4.92499 6.11103ZM16.8778 16.6666H14.1V11.6116C14.1 10.3905 13.4194 9.55714 12.3267 9.55714C11.4928 9.55714 11.0417 10.1194 10.8228 10.6627C10.7428 10.8571 10.7667 11.3949 10.7667 11.6666V16.6666H7.98888V7.22214H10.7667V8.67547C11.1672 8.05547 11.7944 7.22214 13.3989 7.22214C15.3867 7.22214 16.8772 8.47214 16.8772 11.2633L16.8778 16.6666Z" fill="black" fill-opacity="0.56"/>
	</symbol>

	<symbol viewBox="0 0 21 20" id="facebook">
		<path d="M14.8153 7.49989H11.8778V5.83322C11.8778 4.97322 11.9478 4.43156 13.1803 4.43156H14.7369V1.78156C13.9794 1.70322 13.2178 1.66489 12.4553 1.66656C10.1944 1.66656 8.54443 3.04739 8.54443 5.58239V7.49989H6.04443V10.8332L8.54443 10.8324V18.3332H11.8778V10.8307L14.4328 10.8299L14.8153 7.49989Z" fill="black" fill-opacity="0.56"/>
	</symbol>
</svg>
